svg/emoji_u1f964.svg

<svg width="128" height="128" xmlns="http://www.w3.org/2000/svg"><radialGradient id="a" cx="60.487" cy="72.137" gradientTransform="matrix(0 -1 .6873 0 10.909 132.624)" gradientUnits="userSpaceOnUse" r="51.908"><stop offset=".367" stop-color="#64b5f6"/></radialGradient><path d="M101.3 36.49H36.43l7.63 79.7a4.302 4.302 0 0 0 2.28 3.31c3.87 2.02 12.5 4.5 22.52 4.5s18.65-2.48 22.52-4.5c1.26-.66 2.11-1.9 2.28-3.31l7.64-79.7z" fill="url(#a)"/><ellipse cx="68.87" cy="36.49" rx="32.38" ry="8.14" fill="#90caf9"/><linearGradient id="b" gradientUnits="userSpaceOnUse" x1="54.282" x2="85.993" y1="28.618" y2="45.735"><stop offset=".235" stop-color="#1976d2"/></linearGradient><ellipse cx="68.87" cy="36.49" rx="27.49" ry="6.44" fill="url(#b)"/><path d="M68.87 31.35c7.64 0 14.98.69 20.67 1.94 6.05 1.33 8.27 2.85 8.72 3.43v.04l-7.57 79.08c-.06.43-.32.79-.69.99-3.85 2-12.11 4.16-21.14 4.16s-17.28-2.16-21.14-4.16c-.37-.19-.63-.56-.69-.99l-7.57-79.08v-.04c.45-.58 2.67-2.1 8.72-3.43 5.71-1.25 13.05-1.94 20.69-1.94m0-3c-17.88 0-32.38 3.64-32.38 8.14h-.05l7.63 79.7a4.302 4.302 0 0 0 2.28 3.31c3.87 2.02 12.5 4.5 22.52 4.5s18.65-2.48 22.52-4.5c1.26-.66 2.11-1.9 2.28-3.31l7.63-79.7h-.05c-.01-4.49-14.5-8.14-32.38-8.14zm32.43 8.14z" fill="#424242" opacity=".2"/><linearGradient id="c" gradientUnits="userSpaceOnUse" x1="36.587" x2="68.84" y1=".968" y2="59.158"><stop offset=".2" stop-color="#f06292"/></linearGradient><path d="M61.42 30.29l-.76-8.86c-.01-.1-.02-.21-.04-.31A16.238 16.238 0 0 0 48.39 8.27l-17.7-4.18c-1.74-.41-3.49.67-3.9 2.41-.41 1.74.67 3.49 2.41 3.9l17.7 4.18c3.71.88 6.57 3.84 7.32 7.57l.75 8.78.96 11.24c2.05.26 4.25.45 6.56.58l-1.07-12.46z" fill="url(#c)"/><path d="M29.94 5c.17 0 .35.02.52.06l17.7 4.18A15.24 15.24 0 0 1 59.64 21.3l.03.21.76 8.86.97 11.31c-1.57-.1-3.09-.24-4.54-.41l-.89-10.43-.75-8.78c0-.04-.01-.07-.02-.11-.82-4.11-3.99-7.39-8.07-8.35l-17.7-4.18c-1.2-.28-1.95-1.5-1.67-2.7A2.236 2.236 0 0 1 29.94 5m0-1c-1.47 0-2.8 1.01-3.15 2.5-.41 1.74.67 3.49 2.41 3.9l17.7 4.18c3.71.88 6.57 3.84 7.32 7.57l.75 8.78.96 11.24c2.05.26 4.25.45 6.56.58l-1.07-12.46-.76-8.86c-.01-.1-.02-.21-.04-.31A16.238 16.238 0 0 0 48.39 8.27l-17.7-4.18c-.25-.06-.5-.09-.75-.09z" fill="#424242" opacity=".2"/><path d="M49.58 13.86c-.61.96-.36 2.22.56 2.9.57.42 1.22 1 1.87 1.8.7.86 1.09 1.75 1.31 2.53.33 1.15 1.52 1.83 2.67 1.5l3.73-1.06c1.06-.3 1.73-1.34 1.55-2.42-.26-1.49-.89-3.61-2.41-5.57-1.41-1.81-3.09-2.97-4.35-3.66-1-.55-2.26-.23-2.87.74l-2.06 3.24z" fill="#e91e63"/><path fill="none" stroke="#f06292" stroke-linecap="round" stroke-linejoin="round" stroke-miterlimit="10" d="M53.72 11.91l-2.14 3.06M56.03 14.01l-2.74 2.61M57.89 16.62l-3.23 1.65M58.72 19.22l-3.3 1.06"/><g opacity=".2"><path d="M53.46 10.62c.2 0 .39.05.56.15 1.11.61 2.72 1.69 4.04 3.4 1.4 1.8 1.98 3.78 2.21 5.12.1.57-.26 1.13-.83 1.29l-3.73 1.06a1.182 1.182 0 0 1-1.44-.82c-.3-1.07-.81-2.04-1.5-2.89-.62-.76-1.31-1.43-2.05-1.97-.5-.37-.63-1.04-.31-1.56l2.05-3.24c.23-.34.6-.54 1-.54m0-1c-.72 0-1.42.36-1.83 1.01l-2.05 3.24c-.61.96-.36 2.22.56 2.9.57.42 1.22 1 1.87 1.8.7.86 1.09 1.75 1.31 2.53.27.96 1.13 1.58 2.08 1.58.2 0 .39-.03.59-.08l3.73-1.06c1.06-.3 1.73-1.34 1.55-2.42-.26-1.49-.89-3.61-2.41-5.57-1.41-1.81-3.09-2.97-4.35-3.66-.34-.19-.7-.27-1.05-.27z" fill="#444"/></g><g><path d="M42.46 36.49c0 1.32 4.57 3.45 13.38 4.59L55.06 32c-8.32 1.15-12.6 3.2-12.6 4.49zM68.87 41.85c17.34 0 26.41-3.49 26.41-5.36s-9.07-5.36-26.41-5.36c-2.65 0-5.09.09-7.35.23l.88 10.31c2.01.11 4.16.18 6.47.18z" fill="none"/><path d="M59.11 42.51z" fill="#444"/><linearGradient id="d" gradientUnits="userSpaceOnUse" x1="55.445" x2="56.413" y1="41.299" y2="43.046"><stop offset=".2" stop-color="#f06292"/></linearGradient><path fill="url(#d)" d="M55.93 42.17z"/><linearGradient id="e" gradientUnits="userSpaceOnUse" x1="54.529" x2="63.687" y1="34.248" y2="50.772"><stop offset=".2" stop-color="#f06292"/></linearGradient><path d="M59.11 42.51z" fill="url(#e)"/><path d="M68.87 30.05c-2.58 0-5.08.09-7.44.24l.09 1.07c2.26-.15 4.7-.23 7.35-.23 17.34 0 26.41 3.49 26.41 5.36s-9.07 5.36-26.41 5.36c-2.31 0-4.46-.07-6.47-.18-2.4-.13-4.58-.34-6.56-.59-8.81-1.13-13.38-3.26-13.38-4.59 0-1.29 4.29-3.34 12.6-4.49l-.09-1.06c-8.13 1.12-13.59 3.19-13.59 5.56 0 2.46 5.89 4.6 14.55 5.68 1.02.13 2.08.24 3.18.34.99.09 2.01.16 3.05.22.11.01.22.02.33.02v-.01c2.05.11 4.18.18 6.38.18 15.18 0 27.49-2.88 27.49-6.44-.01-3.56-12.31-6.44-27.49-6.44z" opacity=".2" fill="#444"/></g></svg>

<?xml version="1.0" encoding="UTF-8" standalone="no"?>
<!DOCTYPE svg PUBLIC "-//W3C//DTD SVG 1.1//EN" "http://www.w3.org/Graphics/SVG/1.1/DTD/svg11.dtd">
<svg width="100%" height="100%" viewBox="0 0 128 128" version="1.1" xmlns="http://www.w3.org/2000/svg" xmlns:xlink="http://www.w3.org/1999/xlink" xml:space="preserve" xmlns:serif="http://www.serif.com/" style="fill-rule:evenodd;clip-rule:evenodd;stroke-linecap:round;stroke-linejoin:round;stroke-miterlimit:10;">
    <path d="M101.3,36.49L36.43,36.49L44.06,116.19C44.226,117.601 45.081,118.842 46.34,119.5C50.21,121.52 58.84,124 68.86,124C78.88,124 87.51,121.52 91.38,119.5C92.64,118.84 93.49,117.6 93.66,116.19L101.3,36.49Z" style="fill:rgb(98,192,234);fill-rule:nonzero;"/>
    <ellipse cx="68.87" cy="36.49" rx="32.38" ry="8.14" style="fill:rgb(129,205,238);"/>
    <ellipse cx="68.87" cy="36.49" rx="27.49" ry="6.44" style="fill:rgb(33,41,119);"/>
    <path d="M61.42,30.29L60.66,21.43C60.65,21.33 60.64,21.22 60.62,21.12C59.452,14.803 54.641,9.749 48.39,8.27L30.69,4.09C28.95,3.68 27.2,4.76 26.79,6.5C26.38,8.24 27.46,9.99 29.2,10.4L46.9,14.58C50.61,15.46 53.47,18.42 54.22,22.15L54.97,30.93L55.93,42.17C57.98,42.43 60.18,42.62 62.49,42.75L61.42,30.29Z" style="fill:rgb(241,147,179);fill-rule:nonzero;"/>
    <path d="M49.58,13.86C48.97,14.82 49.22,16.08 50.14,16.76C50.71,17.18 51.36,17.76 52.01,18.56C52.71,19.42 53.1,20.31 53.32,21.09C53.65,22.24 54.84,22.92 55.99,22.59L59.72,21.53C60.78,21.23 61.45,20.19 61.27,19.11C61.01,17.62 60.38,15.5 58.86,13.54C57.45,11.73 55.77,10.57 54.51,9.88C53.51,9.33 52.25,9.65 51.64,10.62L49.58,13.86Z" style="fill:rgb(215,89,139);fill-rule:nonzero;"/>
    <path d="M53.72,11.91L51.58,14.97M56.03,14.01L53.29,16.62M57.89,16.62L54.66,18.27M58.72,19.22L55.42,20.28" style="fill:none;fill-rule:nonzero;stroke:rgb(235,122,164);stroke-width:1px;"/>
    <g>
        <path d="M42.46,36.49C42.46,37.81 47.03,39.94 55.84,41.08L55.06,32C46.74,33.15 42.46,35.2 42.46,36.49ZM68.87,41.85C86.21,41.85 95.28,38.36 95.28,36.49C95.28,34.62 86.21,31.13 68.87,31.13C66.22,31.13 63.78,31.22 61.52,31.36L62.4,41.67C64.41,41.78 66.56,41.85 68.87,41.85Z" style="fill:none;fill-rule:nonzero;"/>
        <path d="M68.87,30.05C66.29,30.05 63.79,30.14 61.43,30.29L61.52,31.36C63.78,31.21 66.22,31.13 68.87,31.13C86.21,31.13 95.28,34.62 95.28,36.49C95.28,38.36 86.21,41.85 68.87,41.85C66.56,41.85 64.41,41.78 62.4,41.67C60,41.54 57.82,41.33 55.84,41.08C47.03,39.95 42.46,37.82 42.46,36.49C42.46,35.2 46.75,33.15 55.06,32L54.97,30.94C46.84,32.06 41.38,34.13 41.38,36.5C41.38,38.96 47.27,41.1 55.93,42.18C56.95,42.31 58.01,42.42 59.11,42.52C60.1,42.61 61.12,42.68 62.16,42.74C62.27,42.75 62.38,42.76 62.49,42.76L62.49,42.75C64.54,42.86 66.67,42.93 68.87,42.93C84.05,42.93 96.36,40.05 96.36,36.49C96.35,32.93 84.05,30.05 68.87,30.05Z" style="fill:rgb(68,68,68);fill-opacity:0.2;fill-rule:nonzero;"/>
    </g>
</svg>
